X: 50
M:6/8
L:1/8
K:G
uD|\
|:ud|\
gdB gdB | gfa gdB | {a}gfg eag | fdd def |
gbg faf | ege def | gdB {B}AGA | BGG G2:|


